plugins/kotlin/frontend-independent/resources/org/jetbrains/kotlin/idea/icons/kotlin_gradle_script.svg

<?xml version="1.0" encoding="utf-8"?>
<!-- Generator: Adobe Illustrator 24.1.2, SVG Export Plug-In . SVG Version: 6.00 Build 0)  -->
<svg version="1.2" baseProfile="tiny" id="Layer_1" xmlns="http://www.w3.org/2000/svg" xmlns:xlink="http://www.w3.org/1999/xlink"
	 x="0px" y="0px" viewBox="0 0 16 16" overflow="visible" xml:space="preserve">
<g>
	<path fill-rule="evenodd" fill="#9AA7B0" fill-opacity="0.8" d="M8,11.8999996C7.3000002,12,6.8000002,12.5,6.6999998,13.1999998
		c0,0.1000004-0.0999999,0.1999998-0.1999998,0.1999998h-1c-0.0999999,0-0.1999998-0.1000004-0.1999998-0.1999998
		c-0.0999999-0.8000002-0.6999998-1.3000002-1.5-1.3000002s-1.4000001,0.6000004-1.5,1.3000002
		c0,0.1000004-0.0999999,0.1999998-0.2,0.1999998H1c-0.1,0-0.2-0.1000004-0.2-0.1999998C0.2,10.1999998,1.3,7.7999997,3,6.5
		l0.9000001,1.6000004C4.1999998,8.5,4.5999999,8.6999998,5,8.6999998c0.1999998,0,0.4000001-0.1000004,0.5999999-0.1999998
		L6,8.3000002l0,0C6.5,8,7,7.5999999,7.5,7.1999998c0,0,0.0999999-0.0999999,0.0999999-0.1999998s0-0.0999999-0.0999999-0.1999998
		s-0.1999998-0.0999999-0.3000002,0c-0.4000001,0.4000001-0.9000001,0.6999998-1.4000001,1L5.4000001,8.1999998l0,0l0,0
		C5,8.3999996,4.5,8.3000002,4.3000002,7.9000001l-1-1.7000003C3.2,6,3.2,5.8000002,3.3,5.5999999
		c0.0999999-0.1999998,0.2-0.4000001,0.4000001-0.5c5.6999998-2.7,8.1000004,2.5,10,0.6999998
		c0.5-0.5,0.6000004-1.2999997,0.1000004-1.9000001c-0.5-0.5-1.3000002-0.5999999-1.8999996-0.2
		c-0.1000004,0.0999999-0.1999998,0.0999999-0.3000002,0l-0.3000002-0.3c0,0-0.1000004-0.0999999-0.1000004-0.2
		s0-0.0999999,0.1000004-0.2c0.8999996-0.9000001,2.4000006-0.8,3.3000002,0.0999999
		c0.6999998,0.7,1.6000004,2.5999999-0.5,4.8000002H8V11.8999996z M10.8000002,7.5L10.8000002,7.5
		C11,7.3000002,11,7.0999999,10.8999996,6.9000001s-0.3000002-0.3000002-0.5-0.3000002S10,6.7999997,10,7L10.8000002,7.5z"/>
</g>
<polygon fill="#7F52FF" points="16,16 9,16 9,9 16,9 12.5,12.5 "/>
</svg>

<svg width="16" height="16" viewBox="0 0 16 16" fill="none" xmlns="http://www.w3.org/2000/svg">
<g id="kotlin_gradle_script">
<g id="&#226;&#140;&#152;/modifier/kotlin">
<path id="&#226;&#140;&#152;/modifier/kotlin_2" d="M16 16H9V9H16L12.4 12.4L16 16Z" fill="#B99BF8"/>
</g>
<g id="gradleFile">
<path id="Combined Shape" fill-rule="evenodd" clip-rule="evenodd" d="M11.3604 3.13297C12.2871 2.26772 13.7327 2.29251 14.6291 3.18901C15.3645 3.92434 16.1839 5.75506 14.174 8H8V11.8836C7.34792 11.9939 6.82763 12.5178 6.73846 13.1929C6.72441 13.3044 6.62997 13.3882 6.51758 13.389H5.50549C5.39283 13.389 5.29797 13.3047 5.28461 13.1929C5.18401 12.4313 4.53469 11.8621 3.76648 11.8621C2.99827 11.8621 2.34895 12.4313 2.24835 13.1929C2.23794 13.3108 2.1376 13.4003 2.01923 13.3973H0.984064C0.876572 13.3967 0.784592 13.3199 0.764834 13.2143C0.181317 10.1747 1.25934 7.77473 3.01483 6.52528L3.93297 8.10934C4.15349 8.48927 4.56016 8.72246 4.99945 8.72088C5.20783 8.72134 5.41281 8.66797 5.5945 8.56594L6.02472 8.32528H6.03956C6.54724 8.00931 7.02602 7.64912 7.47033 7.2489C7.51609 7.2056 7.54117 7.14482 7.53929 7.08185C7.5374 7.01888 7.50871 6.95971 7.46044 6.91923C7.36925 6.84624 7.23852 6.85043 7.1522 6.92912C6.73006 7.3038 6.27677 7.64184 5.79725 7.93956L5.37198 8.17692L5.39011 8.16374L5.36703 8.17692C5.00128 8.38297 4.5378 8.2557 4.32857 7.89176L3.35769 6.21539C3.24954 6.03056 3.22363 5.80891 3.28626 5.60412C3.34889 5.39934 3.49433 5.23009 3.68736 5.13736C6.99428 3.56099 9.21976 4.69386 10.8712 5.5345C12.0448 6.13194 12.9285 6.58178 13.7044 5.80659C14.2302 5.3103 14.271 4.48761 13.7968 3.94178C13.3226 3.39594 12.5023 3.32128 11.9374 3.77253C11.8483 3.83997 11.7232 3.83153 11.644 3.75275L11.3604 3.46264C11.3153 3.4197 11.2897 3.36011 11.2897 3.2978C11.2897 3.23549 11.3153 3.17591 11.3604 3.13297ZM10.0599 7.09231L10.7802 7.4533V7.45495C10.9513 7.32835 11.0107 7.09953 10.923 6.90566C10.8352 6.7118 10.6241 6.60548 10.4161 6.65046C10.2081 6.69544 10.0597 6.87951 10.0599 7.09231Z" fill="#9AA7B0" fill-opacity="0.8"/>
</g>
</g>
</svg>
